plugins/core/tools/data/fonts/icons/axes.svg

<svg enable-background="new 0 0 76.00 76.00" height="76" viewBox="0 0 76 76" width="76" xmlns="http://www.w3.org/2000/svg"><path d="m38 38h16.625l-5.625-6h5.5l7.5 8-7.5 8h-5.5l5.625-6h-17.7966l-8.1728 8.1728c.2223.566.3444 1.1823.3444 1.8272 0 2.7614-2.2386 5-5 5s-5-2.2386-5-5 2.2386-5 5-5c.6449 0 1.2612.1221 1.8272.3444l8.1728-8.1728v-14.5876c-1.7659-.7716-3-2.5337-3-4.584 0-2.7614 2.2386-5 5-5s5 2.2386 5 5c0 2.0503-1.2341 3.8124-3 4.584z" stroke-linejoin="round" stroke-width=".2"/></svg>

<?xml version="1.0" encoding="utf-8"?>
<!DOCTYPE svg PUBLIC "-//W3C//DTD SVG 1.1//EN" "http://www.w3.org/Graphics/SVG/1.1/DTD/svg11.dtd">
<svg width="76px" height="76px" viewBox="0 0 76 76" xmlns="http://www.w3.org/2000/svg" xmlns:xlink="http://www.w3.org/1999/xlink" version="1.1" baseProfile="full" enable-background="new 0 0 76.00 76.00" xml:space="preserve">
	<path fill="#000000" fill-opacity="1" stroke-width="0.2" stroke-linejoin="round" d="M 38,38L 54.625,38L 49,32L 54.5,32L 62,40L 54.5,48L 49,48L 54.625,42L 36.8284,42L 28.6556,50.1728C 28.8779,50.7388 29,51.3551 29,52C 29,54.7614 26.7614,57 24,57C 21.2386,57 19,54.7614 19,52C 19,49.2386 21.2386,47 24,47C 24.6449,47 25.2612,47.1221 25.8272,47.3444L 34,39.1716L 34,24.584C 32.2341,23.8124 31,22.0503 31,20C 31,17.2386 33.2386,15 36,15C 38.7614,15 41,17.2386 41,20C 41,22.0503 39.7659,23.8124 38,24.584L 38,38 Z "/>
</svg>
